X:1
T:Villanella son io ma bella
T:Horatio Vecchi
T:Source : La Veglie di Siena---Venetia---Ang.Gardano---1604. Editor : André Vierendeels (02/04/17).
T:Notes : Original clefs :  C1, C1, C3 Original note values have been quartered  in 3-beat measures "Imitatione della Villanella" 
T:Villanella son io ma bella
T:©
T:©
T:©
T:©
C:Horatio Vecchi
Z:©
%%score [ 1 2 3 ]
L:1/8
Q:1/4=120
M:2/2
K:F
V:1 treble nm="Soprano" snm="S"
V:2 treble nm="Alto" snm="A"
V:3 treble-8 nm="Tenor" snm="T"
V:1
 z4 G2 A2 | B2 G4 B2 | A2 A2 B4 | G4 G2 A2 | B2 G4 B2 | A2 A2 B4 | G4 d4 | G8 :: c2 B2 A2 A2- | %9
w: Vil- la-|nel- la son|io ma bel-|la, son da|be- ne ma|po- ve- rel-|la, ahi-|me,|io mi chia- mo|
 A2 c2 d2 B2 | c2 cA B2 A2 | G2 G2 F3 c | B2 A2 G2 G2 ||[M:6/4] A6 d4 d2 | c3 B G2 A3 G A2 | %15
w: _ la Bru- net-|ti- na, fa la la|li lun fa la|la la li lun|fa, che l'a-|mo- re mo- ri- re mi|
 =B4 c2 A3 G A2 |[M:4/4] G2 d2 c2 B2 | A2 A2 G3 d | c2 B2 A2 A2 | G8 | A4 A4- | A2 c2 B2 B2 | %22
w: fa, mo- ri- re mi|fa, fa la la|li lun fa fa|la la li lun|fa,|e chi|_ mar- tel non|
 A3 G FG A2- | ABcA G3 F | G2 A2 F4 | G4 E2 E2 | ^F2 A2 A2 B2 | c2 c2 =B4 | z4 d4 | G4 z4 | d4 G4 | %31
w: ha, fa la la la|_ la la la la, che|co- s'è'A- mor|non sa, che|co- s'è'A- mor non|sa, non sa|ahi-|me,|ahi- me,|
 z4 d4 | G8 |] %33
w: ahi-|me.|
V:2
 z4 G2 ^F2 | G2 D4 G2 | E2 ^F2 G4 | D4 G2 F2 | G2 D4 G2 | E2 ^F2 G4 | D4 ^F4 | G8 :: C2 E2 F2 C2- | %9
w: Vil- la-|nel- la son|io ma bel-|la, son da|be- ne ma|po- ve- rel-|la, ahi|me,|io mi chia- mo|
 C2 F2 D2 D2 | F2 FF D2 F2 | F2 E2 F3 F | D2 F2 D2 E2 ||[M:6/4] F6 F4 G2 | E3 F G2 ^F3 E F2 | %15
w: _ la Bru- net-|ti- na, fa la la|li lun fa la|la la li lun|fa, che l'a-|mo- re mo- ri- re mi|
 G4 E2 ^F3 E F2 |[M:4/4] G2 G2 E2 G2 | G2 ^F2 G3 G | E2 G2 G2 ^F2 | G8 | C4 F4- | F2 C2 D2 E2 | %22
w: fa, mo- ri- re mi|fa, fa la la|li lun fa fa|la la li lun|fa,|e chi|_ mar- tel non|
 F3 G AG F2- | FD F2 E3 D | E2 F2 D4- | D2 E2 ^C2 C2 | D4 z4 | A4 D3 D | D2 E2 F2 F2 | E3 D E2 G2 | %30
w: ha, fa la la la|_ la la la la|la, che co-|* s'è'A- mor non|sa,|ahi- me fa|la la li lun|fa fa la la|
 ^F2 F2 G4- | G4 ^F4 | G8 |] %33
w: li lun fa,|_ ahi-|me.|
V:3
 z4 G2 D2 | G2 G4 G2 | C2 D2 G4 | G4 G2 D2 | G2 G4 G2 | C2 D2 G4 | G4 D4 | G8 :: F2 G2 F2 F2- | %9
w: Vil- la-|nel- la son|io ma bel-|la, son da|be- ne ma|po- ve- rel-|la, ahi|me,|io mi chia- mo|
 F2 A2 B2 G2 | F2 FF G2 A2 | B2 c2 F3 F | B2 d2 =B2 c2 ||[M:6/4] F6 B4 B2 | c3 d _e2 d3 c d2 | %15
w: _ la Bru- net-|ti- na, fa la la|li lun fa la|la la li lun|fa, che l'a-|mo- re mo- rr- re mi|
 G4 C2 D3 C D2 |[M:4/4] G2 G2 A2 B2 | c2 d2 G4 | z4 d4 | G8 | F4 F4- | F2 A2 G2 G2 | F3 E DE F2- | %23
w: fa, mo- ri- re mi|fa, fa la la|li lun fa|ahi-|me,|e chi|_ mar- tel non|ha, fa la la la|
 FGAB c4- | c2 A2 B4 | G4 A2 A2 | D2 d2 c2 B2 | A2 A2 G3 G | F2 E2 D2 D2 | C3 B, A,2 G,2 | %30
w: _ la la la la,|_ che co-|s'è'A- mor non|sa, fa la la|li lun la fa|la la li lun|fa la la la|
 D2 D2 _E4- | E4 D4 | G8 |] %33
w: li lun fa,|_ ahi-|me.|

